X:1
T:Transcendental Étude
T:Transcendental Étude
T:No. 2 "Fusées"
T:Franz Liszt
C:Franz Liszt
%%score { ( 1 4 ) | ( 2 3 ) }
L:1/8
Q:1/4=152
M:3/4
K:C
V:1 treble nm="鋼琴" snm="Pno."
V:4 treble 
V:2 bass 
V:3 bass 
V:1
"^Molto vivace""^a capriccio"!f!"^[ - 160]" !wedge!E!wedge!E!wedge!E | %1
 !>!E3 !wedge![EF]!wedge![EF]!wedge![EF] | !>![EF]3 z/ [EF]/x/[EF]/x/[EF]/- | %3
 [EF]3!<(! z/ [EF^G]/x/[EFG]/x/!<)![EFG]/ | %4
!f!"_molto cresc." z/ [EF^G]/x/[EFA]/ x/ [EFA]/x/[E^FA]/ x/ [EFA]/x/[EFA]/- | %5
 [EFA] z!ff! !wedge![e^gbe'] z z2 | z2!p! z z/"^giusto" [Ee]/z/[^F^f]/z/[^G^g]/ | %7
 z/ [Aa]/z/[Bb]/z/[cc']/z/!<(![Aa]/z/[Bb]/z/[cc']/!<)! | %8
 z/!mf!!>(! [Bb]/z/[Aa]/z/[^G^g]/z/[Ff]/z/[Ee]/z/[Dd]/!>)! | %9
!p! z/ [Cc]/z/[B,B]/z/!<(![A,A]/z/[Cc]/z/[B,B]/z/[A,A]/!<)! | %10
 z/ [^G,^G]/"^string." x/ [B,F]/x/[^A,F]/x/[=A,F]/ x/ [G,F]/!>(! x/ [G,F]/ | %11
 x/ [=G,F]/x/!>)!!mf![^F,=F]/[Q:1/4=148]!>(! x/ [=F,F]/[Q:1/4=140]x/!>)!!mf![E,F]/[Q:1/4=132]!>(! x/ [F,F]/[Q:1/4=116]x/!>)![Q:1/4=84][E,F]/ | %12
[Q:1/4=152]"^a tempo"!p! (3E/A/^G/ (3A/c/B/ (3c/e/^d/ (3e/a/^g/ (3a/c'/b/ (3c'/e'/^d'/ | %13
!8va(! (3e'/a'/^g'/ (3a'/c''/b'/!<(! (3c''/e''/^d''/ (3f''/e''/d''/ (3f''/e''/d''/ (3f''/e''/d''/ | %14
 (3f''/!<)!!f!=d''/^c''/(3_b'/a'/^g'/(3f'/d'/^c'/!8va)!(3_b/a/^g/ (3[df]/=B/^G/(3F/E/G/ | %15
!f! (3(A/a/a/(3a'/a/A/)"^ten." !^!A,-!p! !wedge!A !wedge!A!wedge!A | %16
 !>!A3 !wedge!A!wedge!A!wedge!A | %17
!f! (3(A/a/a/(3a'/a/A/)"^ten." !^!A,-!p! !wedge!A!wedge!A!wedge!A | %18
 !>!A3 !wedge!A!wedge!A!wedge!A | %19
!f! (3(_B/_b/b/(3_b'/b/B/)"^ten." !^!_B,-!p![Q:1/4=153]"^poco a poco accelerando" !wedge!B!wedge!B!wedge!B | %20
[Q:1/4=154] !>!_B3[Q:1/4=155] !wedge!^A!wedge!A!wedge!A | %21
[Q:1/4=156] !>!=B3[Q:1/4=157] !>!!wedge!B!>!!wedge!B!>!!wedge!B | %22
[Q:1/4=158] !^!c3"^più mosso"[Q:1/4=159] !>!!wedge!c!>!!wedge!c!>!!wedge!c | %23
[Q:1/4=160] (3(_d/_d'/!8va(!d'/(3_d''/d'/!8va)!d'/)!mf!!<(! d[I:staff +1] [G__B]/[I:staff -1][__Bd]/[I:staff +1] [F_A]/!<)!!f![I:staff -1][_Ad]/[I:staff +1] [__E_G]/[I:staff -1][_Gd]/ | %24
 (3(^c/^c'/!8va(!c'/(3^c''/c'/!8va)!c'/)!mf!!<(! c[I:staff +1] [^F=A]/[I:staff -1][=Ac]/[I:staff +1] [^E^G]/!<)![I:staff -1][^Gc]/[I:staff +1] [DF]/[I:staff -1][^Fc]/ | %25
[I:staff +1] [^C^E]/[I:staff -1][^E^c]/ z/ [^F=d]/z/[F=d]/z/[F=d]/ z/ [F=d]/ z/ [Ada]/ | %26
z/[Ada]/z/[Ada]/ z/ [Ada]/ z/!mf!!<(! [dad']/z/[dad']/z/[dad']/!<)! | %27
!f! z/ [dad']/ z/!8va(! [ad'a']/z/[ad'a']/z/!<(![ad'a']/z/[ad'a']/z/[ad'a']/!<)! | %28
!ff! z"^accelerando" .[d'^f'a'd''][Q:1/4=162].[d'f'a'd''].[d'f'_b'd''][Q:1/4=164].[d'f'=b'd''].[d'f'c''d''] | %29
[Q:1/4=168] [d'^f'c''d''] z[Q:1/4=60] [g'b'd''g'']!8va)![Q:1/4=152]"^a tempo"!p! z z2 | %30
 z/!p! [c_e_a]/z/[ce=b]/z/[cec']/z/!<(![cea]/z/[ceb]/z/[cec']/!<)! | %31
"^string." x/!>(! [D_B]/x/[DB]/x/[^CB]/x/[=CB]/ x/!>)! [=B,G]/x/[B,G]/ | %32
 z/!p! [c_e_a]/z/[ce=b]/z/[cec']/z/!<(![cea]/z/[ceb]/z/[cec']/!<)! | %33
"^string." x/!>(! [D_B]/x/[DB]/x/[^CB]/x/[=CB]/ x/!>)! [=B,G]/x/[B,G]/ | %34
!p! z/ [cc']/z/[dd']/z/[_e_e']/z/[cc']/z/[dd']/z/[ee']/ | %35
 z/ [dd']/z/[cc']/z/[_B_b]/z/[=A=a]/z/[Gg]/z/d/ | z/ [_E_e]/z/[Ff]/z/[Gg]/z/[Ee]/z/[Ff]/z/[Gg]/ | %37
 z/ [Ff]/z/[_E_e]/z/[Dd]/z/[Cc]/z/[=B,=B]/z/[^G,^G]/ | %38
 z/!<(! [A,A]/z/[B,B]/z/[Cc]/z/[A,A]/z/[B,B]/z/[Cc]/ | %39
 z/ [_B,_B]/z/[A,A]/z/[G,G]/!<)!!f!z/[K:bass][G,G]/z/[F,F]/z/[E,E]/ | %40
!>(! z/ [D,D]/z/[C,C]/z/[B,,B,]/z/[D,D]/z/[C,C]/z/[B,,B,]/!>)! | %41
!mf! z2 z[K:treble] z/!<(! E/z/E/z/E/!<)! |!f! z/ F3 .F.F.F/ |!mf! z2 z z/!<(! _B/z/B/z/B/!<)! | %44
!f! z/ [^G=B]3 .[AB].[AB].[AB]/ |!mf!"_crescendo" z2 z[K:treble] z/ [E^Ge]/z/[EAe]/z/[EBe]/ | %46
 z/ [Ef]3 .f.f.f/ | z2 z z/ ._b.b.b/ | z/ [^g=b]3 .[ab].[ab].[ab]/ | %49
!f! !wedge![^gb]"_energico" z/!8va(! [ee']/z/[^f^f']/z/[g^g']/z/[aa']/z/[bb']/ | %50
 z/ [c'c'']/z/[bb']/z/[aa']/z/[c'c'']/z/[bb']/z/[aa']/ | %51
!mf! z/ [e'e'']/!8va)!!<(! z/ e/z/[^de]/z/[=de]/z/[ce]/z/[Be]/!<)! | %52
!f! z/ !^![^d^f]3 [df][df][df]/ | %53
 z/ [^Ge^g]/"_accelerando"[Q:1/4=154] z/ [Ee]/z/[^F^f]/z/[G^g]/[Q:1/4=155]z/[Aa]/z/[Bb]/ | %54
 z/ [cc']/[Q:1/4=156]z/[Bb]/z/[Aa]/z/[cc']/[Q:1/4=157]z/[Bb]/z/[Aa]/ | %55
!mf! z/ [ee']/!<(! z/ E/[Q:1/4=158]z/[^DE]/z/[=DE]/z/[CE]/[Q:1/4=159]z/[B,E]/!<)! | %56
!f! z/ !^![^D^F]3[Q:1/4=160][Q:1/4=161] [DF][DF][Q:1/4=162][DF]/ | %57
[Q:1/4=163] !wedge![^G,E^G]!mf![Q:1/4=164]"^Prestissimo" z/!<(! [GBe]/z/[Acf]/z/[df_b]/z/!8va(![^g=be']/z/[^c'e'a']/!<)! | %58
!f! z/ !^![^f'a'd'']/!8va)!!mf!!<(! z/ [^FAd]/z/[Bdg]/z/[egc']/z/!8va(![ac'=f']/z/[^d'^f'b']/!<)! | %59
!f! z/ !^![e'b'e'']/!8va)!!mf! z/!<(! [^CEA]/z/[^FAd]/z/[Bdg]/z/[eg=c']/z/[ac'f']/!<)! | %60
!f!!8va(! z/ !^![_bf'_b']/!8va)!!mf! z/!<(! [^G,=B,E]/z/[^CEA]/z/[^FAd]/z/[Bd=g]/z/[eg=c']/!<)! | %61
 z/ [fc'f']/z/[^d^fb]/ z/ !^![ebe']/z/[^cea]/ z/ !^![=da=d']/z/[Bdg]/ | %62
 z/ [cgc']/"_stacc."z/[Acf]/ z/ [_Bf_b]/z/[FBf]/ z/ [DFd]/z/[DFB]/ | %63
 z/ [_B,DF]/ z/[K:bass] [F,_B,D]/ z/ [D,F,B,]/z/[_B,,D,F,]/ z/ !^![B,,D,B,]/z/[B,,D,F,]/ | %64
 z/ !^![=B,,D,^G,=B,]/z/[B,,D,F,]/ z/ !^![B,,D,A,B,]/z/[B,,D,F,]/ z/ !^![B,,^D,A,B,]/z/[B,,D,]/ | %65
 !wedge![E,^G,E] z/[I:staff +1] E,/[I:staff -1][K:treble]z/E/z/e/z/e'/z/!8va(!e''/ | %66
 z/ !^![d''e'']/z/[d'e']/!8va)!z/[de]/z/[DE]/z/[I:staff +1][D,E,]/[I:staff -1]z/[DE]/ | %67
 z/[I:staff +1] !^![C,E,]/[I:staff -1]z/[CE]/z/[ce]/z/!8va(![c'e']/z/[c''e'']/z/[c'e']/!8va)! | %68
[Q:1/4=160]"_dim.""^poco rit." z/ [be']/[Q:1/4=152]z/[Be]/[Q:1/4=136]z/[Be]/[Q:1/4=104]z/[I:staff +1][B,,E,]/[Q:1/4=78][I:staff -1] z/[I:staff +1] [_B,,E,]/[Q:1/4=54][I:staff -1]z/[_B,E]/ | %69
!p![Q:1/4=152]"^Tempo I" (3E/A/^G/ (3A/c/B/ (3c/e/^d/ (3e/a/^g/ (3a/c'/b/ (3c'/e'/^d'/ | %70
!8va(! (3e'/a'/^g'/ (3a'/c''/b'/!<(! (3c''/e''/^d''/ (3f''/e''/d''/ (3f''/e''/d''/ (3f''/e''/d''/ | %71
 (3f''/!<)!!f!=d''/^c''/(3_b'/a'/^g'/(3f'/d'/^c'/!8va)!(3_b/a/^g/ (3[df]/=B/^G/(3F/E/G/ | %72
!ff! (3(A/a/a/(3a'/a/A/) !wedge!A, !wedge![A,CA]!wedge![A,DA]!wedge![A,EA] | %73
 !>![A,A]3 !wedge![A,FA]!wedge![A,EA]!wedge![A,DA] | %74
 (3(A,/A/a/(3a'/a/A/) !wedge!A,!mp! !wedge![CAc]!wedge![DAc]!wedge![EAc] | %75
 !>![Ac]3 !wedge![Ac]!wedge![Ac]!wedge![Ac] | %76
!ff! (3(C/[Ac]/c'/(3[a'c'']/c'/[Ac]/) !wedge!C!mf! !wedge![Cce]!wedge![Dce]!wedge![Ece] | %77
"_crescendo" !>![ce]3 !wedge![ce]!wedge![ce]!wedge![ce] | %78
 !^![Aa]3 !wedge![ac']!wedge![ac']!wedge![ac'] | %79
 !^![ac']3!8va(! !wedge![af'a']!wedge![ae'a']!wedge![ad'a'] | %80
!ff![Q:1/4=180]"^Stretto"[Q:1/4=144] !wedge![c'a'c'']!8va)![Q:1/4=180] !wedge!e!wedge!e!wedge![ef]!wedge![ef]!wedge![_ef] | %81
[Q:1/4=144]!8va(! !wedge![f'_b'f'']!8va)![Q:1/4=180] !wedge![df]!wedge![df_b]!wedge![cfa]!wedge![=Bdf^g]!wedge![^GBe] | %82
!8va(! !wedge![c'a'c'']!8va)! !wedge!e!wedge!e!wedge![ef]!wedge![ef]!wedge![_ef] | %83
!8va(! !wedge![f'_b'f'']!8va)! !wedge![df]!wedge![df_b]!wedge![cfa]!wedge![=Bdf^g]!wedge![^GBe] | %84
!8va(! [c'e'c'']!8va)![I:staff +1][A,,E,A,][I:staff -1] [^ce_b^c'][I:staff +1][^CG_B]!8va(![I:staff -1] [d'^f'd'']!8va)![I:staff +1][A,,^F,A,] | %85
[I:staff -1] [=Bd_a=b][I:staff +1][B,=F_A]!8va(![I:staff -1] [c'e'c'']!8va)![I:staff +1][=A,,E,=A,][I:staff -1] [=Ac_g=a][I:staff +1][A,_E_G] | %86
!8va(![I:staff -1] [_bd'_b'][aa']!8va)![ff'][dd'][_B_b][Aa] | [^G^g][Ff][Ee][Dd][=B,=B][Ee] | %88
 [cec'][I:staff +1][A,,,E,,A,,][I:staff -1] [^CE_B^c][I:staff +1][^C,G,_B,][I:staff -1] [d^fd'][I:staff +1][A,,,^F,,A,,] | %89
[I:staff -1] [=B,D_A=B][I:staff +1][B,,=F,_A,][I:staff -1] [cec'][I:staff +1][=A,,,E,,=A,,][I:staff -1] [=A,C_G=A][I:staff +1][A,,_E,_G,] | %90
[I:staff -1] [_Bd_b][ff'][dd'][Bb][Aa][Ff] | [Ee][Dd][=B,=B]^GFE | %92
 !wedge![A,CA][K:bass] A,A,A, [F,A,][F,A,] | [F,A,][F,A,][^F,A,][F,A,] !arpeggio![C,E,] A, | %94
 A,A, [F,A,][F,A,] [^F,A,][F,A,] | !wedge![C,E,A,C] A,[F,A,_B,][^F,A,=B,] [E,A,C][=F,_B,D] | %96
 [^F,=B,^D][K:treble]!mf!!<(! [A,CE][A,_B,=F][A,=B,^F][CEA][=FA_B] | %97
 [^FA=B][EAc][A_B=f][A=B^f][Acea][=fa_b] | %98
!8va(! [^fa=b][eac'][a_b=f'][a=b^f']!<)!!fff! !wedge![ac'e'a']2 | %99
 !wedge![_b=f'a'_b']2 !wedge![=b^f'a'=b']2 !wedge![c'e'a'c'']2 | !wedge![=f'_b'=f'']2 z2 z2 | %101
[Q:1/4=120] !wedge![d'e'^g'=b'e'']2!8va)! z"^poco sostenuto"[Q:1/4=110] !wedge![Ee][Q:1/4=100]!wedge![Ee][Q:1/4=80]!wedge![Ee] | %102
[Q:1/4=40] !>!!fermata![Ece]6 |] %103
V:2
 z z2 | z6 | z2 z!ped![I:staff -1] [D_B][DB][DB] | %3
 !>![D_B]2!ped-up![I:staff +1] z!ped![I:staff -1] [D=B][DB][DB] | %4
 [DB]!ped-up![DB] [DB][^DB] [DB][DB] | %5
!ped! !wedge![^DB][I:staff +1] z!ped-up!!ped! !wedge![E,,^G,,B,,E,] z z2!ped-up! | z2 z .E.E.E | %7
 !>!E3 .E,.E,.E, |"_stacc." !>!E,3 .E,.E,.E, | !>!E,3 .[E,,E,].[E,,E,].[E,,E,] | %10
"^sopra" [E,,E,][I:staff -1] [DE]/[I:staff +1]x/[I:staff -1][^CE]/[I:staff +1]x/[I:staff -1][=CE]/[I:staff +1] x/[I:staff -1] [B,E]/[I:staff +1] x/[I:staff -1] [B,E]/[I:staff +1] x/ | %11
[I:staff -1] [^A,E]/[I:staff +1]x/[I:staff -1][=A,E]/[I:staff +1] x/!ff![I:staff -1] [A,E]/[I:staff +1]x/[I:staff -1][^G,E]/[I:staff +1] x/!ff![I:staff -1] [A,E]/[I:staff +1]x/[I:staff -1][G,E]/[I:staff +1] x/ | %12
 z !arpeggio!.[A,,E,C]!arpeggio!.[A,,E,C]!arpeggio!.[A,,E,C] !arpeggio!.[A,,E,C] z | %13
 z !arpeggio!.[A,,E,C]!arpeggio!.[A,,E,C]!arpeggio!.[A,,E,C] !arpeggio!.[A,,E,C] z | %14
 !wedge!D,, .[A,_B,F].[A,B,F].[A,B,F] !wedge!E,, .[E,=B,D] | %15
!ped! !wedge![A,,E,C]!wedge![CEA] z!ped-up![I:staff -1] .[A,C]/[I:staff +1].[A,C]/[I:staff -1] .[B,D]/[I:staff +1].[B,D]/[I:staff -1].[CE]/[I:staff +1].[CE]/ | %16
[I:staff -1] .[DF]/[I:staff +1].[DF]/[I:staff -1].[CE]/[I:staff +1].[CE]/[I:staff -1] .[B,^D]/[I:staff +1].[B,^D]/[I:staff -1].[=DF]/!<(![I:staff +1].[=DF]/[I:staff -1] .[CE]/[I:staff +1].[CE]/[I:staff -1].[B,D]/[I:staff +1].[B,D]/!<)! | %17
!ped! !wedge![A,,E,C]!wedge![CEA] z!ped-up!"_sempre stacc."[I:staff -1] .[A,C]/[I:staff +1].[A,C]/[I:staff -1] .[B,D]/[I:staff +1].[B,D]/[I:staff -1].[CE]/[I:staff +1].[CE]/ | %18
[I:staff -1] .[DF]/[I:staff +1].[DF]/[I:staff -1].[CE]/[I:staff +1].[CE]/[I:staff -1] .[B,^D]/[I:staff +1].[B,^D]/[I:staff -1].[=DF]/!<(![I:staff +1].[=DF]/[I:staff -1] .[^CE]/[I:staff +1].[^CE]/[I:staff -1].[=C_E]/[I:staff +1].[=C_E]/!<)! | %19
!ped! !wedge![_B,,F,D]!wedge![DF_B] z!ped-up![I:staff -1] .[B,_D]/[I:staff +1].[_B,D]/[I:staff -1] .[C_E]/[I:staff +1].[C_E]/[I:staff -1].[DF]/[I:staff +1].[DF]/ | %20
[I:staff -1] .[_E_G]/[I:staff +1].[_E_G]/[I:staff -1].[DF]/[I:staff +1].[DF]/[I:staff -1] .[CE]/[I:staff +1].[CE]/[I:staff -1].[^D^F]/[I:staff +1].[^D^F]/[I:staff -1] .[=D^E]/[I:staff +1].[=D^E]/[I:staff -1].[^C=E]/[I:staff +1].[^C=E]/ | %21
[I:staff -1] .[=B,^D]/!<(![I:staff +1].[=B,^D]/[I:staff -1].[^CE]/[I:staff +1].[^CE]/[I:staff -1] .[D^F]/!<)!!mf![I:staff +1].[D^F]/[I:staff -1].[EG]/[I:staff +1].[EG]/[I:staff -1] .[DF]/[I:staff +1].[DF]/[I:staff -1].[=D=F]/[I:staff +1].[=D=F]/ | %22
!mf![I:staff -1] .[CE]/!<(![I:staff +1].[CE]/[I:staff -1].[DF]/[I:staff +1].[DF]/[I:staff -1] .[EG]/!<)![I:staff +1].[EG]/[I:staff -1].[F_A]/[I:staff +1].[F_A]/[I:staff -1] .[CE]/[I:staff +1].[CE]/[I:staff -1].[_C_E]/[I:staff +1].[_C_E]/ | %23
[K:treble] F/_d/_G/d/_A/d/ x x2 | ^E/^c/^F/c/^G/c/ x x2 | %25
 x/ x/[K:bass] ^C/z/!>!^F/z/^F,/ z/ !>!C/z/^C,/ z/ | %26
 !>!^F,/z/^F,,/ z/ !>!^C,/z/^C,,/ z/ !>!F,,/z/^F,,,/ z/ | %27
 ^C,,!<(! .[^F,,,^F,,].[C,,^C,].[F,,^F,].[C,,C,].[=C,,=C,]!<)! | %28
 .[^F,,^F,] .[C,,C,].[=B,,,=B,,].[_B,,,_B,,].[A,,,A,,].[_A,,,_A,,] | %29
 [_A,,,_A,,] z [G,,,G,,] .G.G.G | !>!_A6 | %31
[I:staff -1] [F_A]/[I:staff +1]x/[I:staff -1][FA]/[I:staff +1]x/[I:staff -1][=E_A]/[I:staff +1]x/[I:staff -1][_EA]/[I:staff +1] x/[I:staff -1] [DFA]/[I:staff +1]x/[I:staff -1][DFA]/[I:staff +1] x/ | %32
 !>!_A6 | %33
[I:staff -1] [F_A]/[I:staff +1]x/[I:staff -1][FA]/[I:staff +1]x/[I:staff -1][=E_A]/[I:staff +1]x/[I:staff -1][_EA]/[I:staff +1] x/[I:staff -1] [DFA]/[I:staff +1]x/[I:staff -1][DFA]/[I:staff +1] x/ | %34
 !>!G3 .G.G.G | !>!D3 .D.D.D | !arpeggio!!>!_B,3 .B,.B,.B, | !arpeggio!!>!_A,3 .^G,.G,.F, | %38
 !>!=E,3 .E,.E,.E, | !>!^C,3 .C,.C,.C, | A,,2 A,,2 A,,2 | %41
!8vb(!!ped! (E,,,F,,,^G,,,)!8vb)!!ped-up! .E,.E,.E, | !>!E,3 .E,.E,.E, | %43
!8vb(!!ped! (E,,,F,,,_B,,,)!8vb)!!ped-up! ._B,.B,.B, | !>!=B,3 .B,.B,.B, | %45
!8vb(!!ped! (E,,,F,,,^G,,,)!8vb)!!ped-up! .^G,.[F,A,].[G,B,] | E,3 .E,.E,.E, | %47
!8vb(!!ped! (E,,,F,,,_B,,,)!8vb)!!ped-up! ._B,.^C.D | E,3 x3 | %49
 !wedge![E^G]"_stacc." .[E,E].[^D,^D].[=D,=D].[C,C].[B,,B,] | %50
 .[A,,A,].[B,,B,].[C,C].[A,,A,].[^G,,^G,].[=F,,=F,] | .[E,,E,] EEEEE | !^!E3 EEE | %53
 E .[E,,E,].[^D,,^D,].[=D,,=D,].[C,,C,].[B,,,B,,] | %54
 .[A,,,A,,].[B,,,B,,].[C,,C,].[A,,,A,,].[^G,,,^G,,].[=F,,,=F,,] | .[E,,,E,,] E,E,E,E,E, | %56
 !^!E,3 E,E,E, | !wedge!E, !wedge![E,E]!wedge![=E,_E]!wedge![E,D]!wedge![E,D]!wedge![E,^C] | %58
 !wedge!!^![E,=C] !wedge![E,C]!wedge![E,B,]!wedge![E,_B,]!wedge![E,B,]!wedge![E,A,] | %59
 !wedge!!^![E,^G,] !wedge![E,,=G,]!wedge![E,,^F,]!wedge![E,,F,]!wedge![E,,E,]!wedge![=E,,_E,] | %60
 !wedge!!^![E,,D,] !wedge![E,,D,]!wedge![E,,^C,]!wedge![E,,=C,]!wedge![E,,B,,]!wedge![E,,_B,,] | %61
 !wedge![E,,A,,] !wedge![E,,A,,]!wedge![E,,^G,,]!wedge![E,,=G,,]!wedge![E,,^F,,]!wedge![E,,=F,,] | %62
 E,,"^""^" =E,,!ped!=E,,E,,[D,,E,,][D,,E,,] | %63
 [D,,E,,][D,,E,,] [D,,E,,][D,,E,,] [D,,E,,][D,,E,,]!ped-up! | %64
!ped! [D,,E,,][D,,E,,]!ped-up!!ped! [D,,E,,][D,,E,,]!ped-up!!ped! [B,,,^D,,E,,][D,,E,,]!ped-up! | %65
!ped! !wedge![E,,,B,,,E,,] E,,/z/E,/z/E/z/[K:treble]e/z/e'/ z/!ped-up! | %66
!ped! !^![d'e']/z/[de]/z/[K:bass][DE]/z/[D,E,]/z/[D,,E,,]/z/[D,E,]/ z/!ped-up! | %67
!ped! !^![C,,E,,]/z/[C,E,]/z/[CE]/z/[K:treble][ce]/z/[c'e']/z/[ce]/ z/!ped-up! | %68
!ped! !^![Be]/z/[K:bass][B,E]/z/[B,,E,]/z/[B,,,E,,]/ z/ [_B,,,E,,]/z/[_B,,E,]/ z/!ped-up! | %69
 z !arpeggio!.[A,,E,C]!arpeggio!.[A,,E,C]!arpeggio!.[A,,E,C] !arpeggio!.[A,,E,C] z | %70
 z !arpeggio!.[A,,E,C]!arpeggio!.[A,,E,C]!arpeggio!.[A,,E,C] !arpeggio!.[A,,E,C] z | %71
 !wedge!D,, .[A,_B,F].[A,B,F].[A,B,F] !wedge!E,, .[E,=B,D] | %72
!ped! !wedge![A,,E,C]!wedge![CEA] z!ped-up! !wedge![A,,,A,,]!wedge![B,,,B,,]!wedge![C,,C,] | %73
 !wedge![D,,D,]!wedge![C,,C,]!wedge![B,,,B,,]!wedge![D,,D,]!wedge![C,,C,]!wedge![B,,,B,,] | %74
!ped! !wedge![A,,,A,,]!wedge![E,C] z!ped-up! !wedge![A,,,A,,]!wedge![B,,,B,,]!wedge![C,,C,] | %75
 !wedge![D,,D,]!wedge![C,,C,]!wedge![B,,,B,,]!wedge![D,,D,]!wedge![C,,C,]!wedge![B,,,B,,] | %76
!ped! !wedge![A,,,A,,]!wedge![E,A,E] z!ped-up! !wedge![A,,,A,,]!wedge![B,,,B,,]!wedge![C,,C,] | %77
 !wedge![D,,D,]!wedge![C,,C,]!wedge![B,,,B,,]!wedge![D,,D,]!wedge![C,,C,]!wedge![B,,,B,,] | %78
 !wedge![A,,,A,,]!wedge![B,,,B,,]!wedge![C,,C,]!wedge![D,,D,]!wedge![C,,C,]!wedge![B,,,B,,] | %79
 !wedge![A,,,A,,]!wedge![B,,,B,,]!wedge![C,,C,]!wedge![D,,D,]!wedge![C,,C,]!wedge![B,,,B,,] | %80
!ped! !wedge![A,,,E,,A,,] !wedge!E!wedge!E!wedge![EF]!wedge![EF]!wedge![_EF]!ped-up! | %81
!ped! !arpeggio!!wedge![E,,D,F,][K:treble] !wedge![DF]!wedge![DF_B]!wedge![CFA]!wedge![=B,DF^G]!ped-up!!wedge![^G,B,E] | %82
[K:bass]!ped! !wedge![A,,E,A,] !wedge!E!wedge!E!wedge![EF]!wedge![EF]!wedge![_EF]!ped-up! | %83
!ped! !arpeggio!!wedge![E,,D,F,][K:treble] !wedge![DF]!wedge![DF_B]!wedge![CFA]!wedge![=B,DF^G]!ped-up!!wedge![^G,B,E] | %84
[K:bass]"_marcatissimo" x2[K:treble] x2[K:bass] x2 | x6 | %86
!ped! [A,,D,F,_B,][A,,D,F,B,][A,,D,F,B,][A,,D,F,B,][A,,D,F,B,][A,,D,F,A,]!ped-up! | %87
!ped! [A,,=B,,D,E,^G,][A,,B,,D,E,G,][A,,B,,D,E,G,][A,,B,,D,E,G,][A,,B,,D,E,G,][A,,B,,D,E,G,]!ped-up! | %88
 x6 | x6 | %90
!ped! [A,,,D,,F,,_B,,][A,,,D,,F,,B,,][A,,,D,,F,,B,,][A,,,D,,F,,B,,][A,,,D,,F,,A,,][A,,,D,,F,,A,,]!ped-up! | %91
!ped! [A,,,B,,,D,,E,,^G,,][A,,,B,,,D,,E,,G,,][A,,,B,,,D,,E,,G,,][A,,,B,,,D,,E,,G,,][A,,,B,,,D,,E,,G,,][A,,,B,,,D,,E,,G,,]!ped-up! | %92
!ped! !wedge![A,,,C,,E,,A,,] A,,A,,A,,!ped-up! [D,,A,,][D,,A,,] | %93
 [D,,A,,][D,,A,,][^D,,A,,][D,,A,,] !arpeggio!!wedge![A,,,C,,E,,A,,] A,, | %94
 A,,A,, [D,,A,,][D,,A,,] [^D,,A,,][D,,A,,] | %95
 !wedge![A,,,C,,E,,A,,] A,,[D,,A,,][^D,,A,,] [A,,,A,,][=D,,A,,] | %96
 [^D,,A,,] [A,,,A,,][=D,,=D,][^D,,^D,][A,,,A,,][=D,,=D,] | %97
 [^D,,^D,][A,,,A,,][=D,,=D,][^D,,^D,][A,,,A,,][=D,,=D,] | %98
 [^D,,^D,][A,,,A,,][=D,,=D,][^D,,^D,] !wedge![A,,,A,,]2 | %99
 !wedge![=D,,A,,=D,]2 !wedge![^D,,A,,^D,]2 !wedge![A,,,A,,]2 | %100
!ped! !wedge![=D,,F,,_B,,=D,]2 z2!ped-up! z2 | %101
!ped! !wedge![E,,^G,,=B,,E,]2 z!ped-up!!ped! !wedge!E,!wedge!E,!wedge!E, | %102
 !>!!fermata![A,,E,]6!ped-up! |] %103
V:3
 x3 | x6 | x6 | x6 | x6 | x6 | x3 .E,.^D,.=D, | !arpeggio!.C,.B,,.A,,.C,.B,,.A,, | %8
 .^G,,.=F,,.E,,.^F,,.=G,,.^G,, | .A,,.B,,.C,.A,,.^G,,.=F,, | E,, x5 | x6 | x6 | x6 | x6 | x6 | x6 | %17
 x6 | x6 | x6 | x6 | x6 | x6 |[K:treble] _D/ x/ __E/ x/ F/ x7/2 | ^C/ x/ =D/ x/ ^E/ x7/2 | %25
 x[K:bass] x5 | x6 | x6 | x6 | x6 | .F,.C._E.C._A,.F, | x6 | .F,.C._E.C._A,.F, | x6 | %34
 !arpeggio!._E,.G,.C.G,._E.C | !arpeggio!._B,,.D,.G,.D,._B,.G, | .G,,._B,,._E,.B,,.G,.E, | %37
 .D,,.=B,,.F,.B,,.D,.D, | .C,.B,,.A,,.C,.B,,.A,, | .G,,.F,,.E,,._B,,.A,,.G,, | %40
 .F,,.E,,.D,,.F,,.E,,.^D,, |!8vb(! E,,,/E,,/E,,,/E,,/E,,,/E,,/!8vb)! .E,,.F,,.^G,, | %42
 (A,,B,,C,).A,,.B,,.C, |!8vb(! E,,,/E,,/E,,,/E,,/E,,,/E,,/!8vb)! ._B,,.^C,.D, | (D,E,F,).D,.E,.F, | %45
!8vb(! E,,,/E,,/E,,,/E,,/E,,,/E,,/!8vb)! .E,.E,.E, | (!>![A,C][B,D][CE]).[A,C].[B,D].[CE] | %47
!8vb(! E,,,/E,,/E,,,/E,,/E,,,/E,,/!8vb)! .E,.E,.E, | (!>![=B,D][CE][DF]) .[DF].[E^G].[FA] | x6 | %50
 x6 | x E,^F,^G,A,B, | CB,A,CB,A, | [E,B,] x5 | x6 | x E,,^F,,^G,,A,,B,, | C,B,,A,,C,B,,A,, | %57
 [E,,B,,] x5 | x6 | x6 | x6 | x6 | x _E,,D,,D,, !^!_B,,,2 | !^!F,,,2 !^!_B,,,2 !^!F,,,2 | %64
 !^!=B,,,2 !^!F,,,2 !^!F,,,2 | x4[K:treble] x2 | x2[K:bass] x4 | x3[K:treble] x3 | x[K:bass] x5 | %69
 x6 | x6 | x6 | x6 | x6 | x6 | x6 | x6 | x6 | x6 | x6 | x6 | x[K:treble] x5 |[K:bass] x6 | %83
 x[K:treble] x5 |[K:bass] x2[K:treble] x2[K:bass] x2 | x6 | x6 | x6 | x6 | x6 | x6 | x6 | %92
 x4 _B,,2- | B,,2 !^!=B,,2 x2 | x2 !^!_B,,2 !^!=B,,2 | x6 | x6 | x6 | x6 | x6 | x6 | x6 | x6 |] %103
V:4
 x3 | x6 | x6 | x6 | x6 | x6 | x6 | x6 | x6 | x6 | x6 | x6 | %12
 !arpeggio!C/ x/ E/ x/ A/ x/ c/ x/ e/ x/ a/ x/ | %13
!8va(! c'/ x/ e'/ x/ a'/ x/ [a'c'']/ x/ [a'c'']/ x/ [a'c'']/ x/ | [f'_b'] x2!8va)! x3 | x6 | x6 | %17
 x6 | x6 | x6 | x6 | x6 | x6 | x2/3!8va(! x!8va)! x13/3 | x2/3!8va(! x!8va)! x13/3 | x6 | x6 | %27
 x3/2!8va(! x9/2 | x6 | x3!8va)! x3 | x6 | x6 | x6 | x6 | x6 | x6 | x6 | x6 | x6 | %39
 x7/2[K:bass] x5/2 | x6 | x3[K:treble] x/ ^G,/z/A,/z/B,/ | x/ C/z/B,/z/A,/z/C/z/B,/z/A,/ | %43
 x7/2 D/z/E/z/F/ | x/ F/z/E/z/D/z/F/z/E/z/D/ | x3[K:treble] x3 | %46
 x/ c/z/B/z/A/z/[Fc]/z/[FB]/z/[FA]/ | x7/2 [_Bd]/z/[Be]/z/[Bf]/ | %48
 x/ [df]/z/[ce]/z/[Bd]/z/[df]/z/[ce]/z/[Bd]/ | [Be] x/!8va(! x2 e'e'e'/ | x/ e'3 e'e'e'/ | %51
 x!8va)! x5 | x/ A/z/B/z/c/z/A/z/B/z/c/ | x7/2 eee/ | x/ e3 eee/ | x6 | %56
 x/ A,/z/B,/z/C/z/A,/z/B,/z/C/ | x9/2!8va(! x3/2 | x!8va)! x7/2!8va(! x3/2 | x!8va)! x5 | %60
!8va(! x!8va)! x5 | x6 | x6 | x3/2[K:bass] x9/2 | x6 | x2[K:treble] x7/2!8va(! x/ | x2!8va)! x4 | %67
 x7/2!8va(! x5/2!8va)! | x6 | !arpeggio![A,C]/ x/ E/ x/ A/ x/ c/ x/ e/ x/ a/ x/ | %70
!8va(! c'/ x/ e'/ x/ a'/ x/ [a'c'']/ x/ [a'c'']/ x/ [a'c'']/ x/ | [f'_b'] x2!8va)! x3 | x6 | %73
 !wedge!F!wedge!E!wedge!D x3 | x6 | !wedge!F!wedge!E!<(!!wedge!DFED!<)! | x6 | %77
 !wedge!F!wedge!E!wedge!DFED | !wedge!c!wedge!d!wedge!efed | %79
 !wedge!c!wedge!d!f!"_molto"!wedge!e!8va(! x3 | x!8va)! x5 |!8va(! x!8va)! x5 |!8va(! x!8va)! x5 | %83
!8va(! x!8va)! x5 |!8va(! x!8va)! x3!8va(! x!8va)! x | x2!8va(! x!8va)! x3 |!8va(! x2!8va)! x4 | %87
 x6 | x6 | x6 | x6 | x3[I:staff +1] !stemless!^G, !stemless!F, !stemless!E, | %92
 x[I:staff -1][K:bass] x3 _B,2- | B,2 !^!=B,2 [A,C] x | x2 !^!_B,2 !^!=B,2 | x6 | x[K:treble] x5 | %97
 x6 |!8va(! x6 | x6 | x6 | x2!8va)! x4 | x6 |] %103

